file/safeway.svg

<svg clip-rule="evenodd" fill-rule="evenodd" stroke-linejoin="round" stroke-miterlimit="1.41421" viewBox="0 0 560 400" xmlns="http://www.w3.org/2000/svg"><g fill-rule="nonzero" transform="matrix(1.28388 0 0 1.28388 23.2882 7.22539)"><path d="m28.9 146.8-3.6-2c-4.2-2.5-6.6-4.3-6.6-7.3 0-3.3 2.7-5.3 7-5.3 2.9 0 6.5 1.3 11.3 3.9l.6.4v-8.5l-.1-.1c-4.1-2.1-8.1-3.1-12.4-3.1-9.1 0-15.2 5.3-15.2 13.1 0 6.5 4.1 10.2 10.5 14l3.7 2.2c5.2 3.1 7 5.3 7 8.6 0 3.9-3.5 6.6-8.4 6.6-4 0-8.2-1.5-13.5-4.9l-.1-.2v9.7l.7.4c4.1 1.9 8.6 2.9 13.4 2.9 10.3 0 17.2-5.9 17.2-14.7-.1-6.5-3.3-10.9-11.5-15.7zm62.8 29.1h8.9v-21.9h19.7v-7.8h-19.7v-12.4h20.6v-7.9h-29.5zm44-22.2h18.9v-7.8h-18.9v-12h20.4v-7.9h-29.1v50h29.6v-8h-20.8v-14.3zm149.1-27.8s-4.8 7.6-11.3 17.7c-.5.8-.9 1.4-1.1 1.9h-.1c-.2-.5-.6-1.2-1.1-1.9-6.9-10.9-11.4-17.7-11.4-17.7h-10.7l18.6 27.3v22.7h9.1v-22.7c1-1.4 18.6-27.3 18.6-27.3zm-48.1-1.6-23.5 51.7h9.6l3.7-8.7h21.3l3.8 8.7h9.5l-23.5-51.7zm8 35.7h-15.1s4.1-10 6.8-16.2c.5-1.1.7-2.4.7-2.4h.1s.3 1.3.7 2.4c2.8 6.5 6.8 16.2 6.8 16.2zm-31.2-34.1s-6.7 21.1-8.9 27.8c-.2.8-.6 2.1-.7 2.5h-.1c0-.3-.4-1.7-.7-2.5-1.6-4.4-11.4-29.7-11.4-29.7h-.7s-9.3 24.3-11.4 29.7c-.3.9-.7 2.2-.7 2.5h-.1c0-.3-.4-1.7-.7-2.5-2.2-6.9-8.9-27.8-8.9-27.8h-9.4l17.9 51.7h.9s10-25 11.9-29.9c.3-.7.7-2.2.7-2.5h.1c0 .3.4 1.7.7 2.5 1.6 4.1 11.9 29.9 11.9 29.9h.9l17.9-51.7zm-149.4-1.6-23.6 51.7h9.6l3.8-8.7h21.3l3.8 8.7h9.5l-23.5-51.7zm8 35.7h-15.2s4.1-10 6.8-16.2c.5-1.1.8-2.4.8-2.4h.1s.3 1.3.7 2.4c2.7 6.5 6.8 16.2 6.8 16.2z" fill="#231f20"/><path d="m381.9 150.2c0 3-.1 4.9-.1 6-.8 16.9-11.7 27.8-32.2 28.8-2.2.1-3.5.2-6.2.2-1.3 0-2.2-.1-3.1-.1 5.2-.4 9.7-1.9 13.4-4.2.2-.1.4-.3.6-.4.3-.2.5-.4.8-.6.4-.3.8-.6 1.2-1 .1-.1.2-.1.2-.2.5-.4 1-.9 1.4-1.3v-.1c.5-.5.9-1 1.3-1.5l.1-.1c.4-.5.7-1 1.1-1.5.1-.1.1-.2.2-.3.3-.4.5-.9.7-1.3.1-.2.2-.5.3-.7.2-.3.3-.7.4-1 .1-.4.3-.8.4-1.2.1-.2.1-.4.2-.7.2-.5.3-1.1.4-1.6 0-.1 0-.2.1-.3.1-.6.2-1.3.3-2v-.1c.1-.7.1-1.5.1-2.2 0-.6 0-1.2-.1-1.8-.5-7.9-4.6-12.7-8.9-16.7-5.5-5.1-11.5-8.9-11.5-16.4 0-9.2 6.4-11.6 9.7-12.3 18.5 1.9 28.3 12.6 28.9 28.6.3 1.1.4 2.9.3 6zm-37.8 29.1c1-1.7 1.6-3.9 1.6-6.8 0-13.9-20.6-15.1-20.6-34.9 0-6.7 2.4-11.7 6.1-15.4 4-4 9.6-6.3 15.2-7-.9 0-1.8-.1-3-.1-2.7 0-4 .1-6.2.2-20.5 1-31.4 11.9-32.1 28.8 0 1.1-.2 3-.2 6s.1 4.8.2 6c.7 16.4 11.1 27.3 30.5 28.7.1 0 .2 0 .3-.1h-.2c2.3-.4 6.1-1.7 8.4-5.4z" fill="#d6232a"/><path d="m383.3 181.2h-1.3v-.5h3.5v.5h-1.5v4h-.7zm2.7-.5h1.1l1.3 3.4 1.3-3.4h1.1v4.4h-.7v-3.9l-1.4 3.9h-.7l-1.4-3.9v3.9h-.7z" fill="#231f20"/></g></svg>

<?xml version="1.0" encoding="UTF-8" standalone="no"?>
<!DOCTYPE svg PUBLIC "-//W3C//DTD SVG 1.1//EN" "http://www.w3.org/Graphics/SVG/1.1/DTD/svg11.dtd">
<svg width="100%" height="100%" viewBox="0 0 560 400" version="1.1" xmlns="http://www.w3.org/2000/svg" xmlns:xlink="http://www.w3.org/1999/xlink" xml:space="preserve" xmlns:serif="http://www.serif.com/" style="fill-rule:evenodd;clip-rule:evenodd;stroke-linejoin:round;stroke-miterlimit:1.41421;">
    <g transform="matrix(1.28388,0,0,1.28388,23.2882,7.22539)">
        <path id="text" d="M28.9,146.8L25.3,144.8C21.1,142.3 18.7,140.5 18.7,137.5C18.7,134.2 21.4,132.2 25.7,132.2C28.6,132.2 32.2,133.5 37,136.1L37.6,136.5L37.6,128L37.5,127.9C33.4,125.8 29.4,124.8 25.1,124.8C16,124.8 9.9,130.1 9.9,137.9C9.9,144.4 14,148.1 20.4,151.9L24.1,154.1C29.3,157.2 31.1,159.4 31.1,162.7C31.1,166.6 27.6,169.3 22.7,169.3C18.7,169.3 14.5,167.8 9.2,164.4L9.1,164.2L9.1,173.9L9.8,174.3C13.9,176.2 18.4,177.2 23.2,177.2C33.5,177.2 40.4,171.3 40.4,162.5C40.3,156 37.1,151.6 28.9,146.8ZM91.7,175.9L100.6,175.9L100.6,154L120.3,154L120.3,146.2L100.6,146.2L100.6,133.8L121.2,133.8L121.2,125.9L91.7,125.9L91.7,175.9ZM135.7,153.7L154.6,153.7L154.6,145.9L135.7,145.9L135.7,133.9L156.1,133.9L156.1,126L127,126L127,176L156.6,176L156.6,168L135.8,168L135.8,153.7L135.7,153.7ZM284.8,125.9C284.8,125.9 280,133.5 273.5,143.6C273,144.4 272.6,145 272.4,145.5L272.3,145.5C272.1,145 271.7,144.3 271.2,143.6C264.3,132.7 259.8,125.9 259.8,125.9L249.1,125.9L267.7,153.2L267.7,175.9L276.8,175.9L276.8,153.2C277.8,151.8 295.4,125.9 295.4,125.9L284.8,125.9ZM236.7,124.3L213.2,176L222.8,176L226.5,167.3L247.8,167.3L251.6,176L261.1,176L237.6,124.3L236.7,124.3ZM244.7,160L229.6,160C229.6,160 233.7,150 236.4,143.8C236.9,142.7 237.1,141.4 237.1,141.4L237.2,141.4C237.2,141.4 237.5,142.7 237.9,143.8C240.7,150.3 244.7,160 244.7,160ZM213.5,125.9C213.5,125.9 206.8,147 204.6,153.7C204.4,154.5 204,155.8 203.9,156.2L203.8,156.2C203.8,155.9 203.4,154.5 203.1,153.7C201.5,149.3 191.7,124 191.7,124L191,124C191,124 181.7,148.3 179.6,153.7C179.3,154.6 178.9,155.9 178.9,156.2L178.8,156.2C178.8,155.9 178.4,154.5 178.1,153.7C175.9,146.8 169.2,125.9 169.2,125.9L159.8,125.9L177.7,177.6L178.6,177.6C178.6,177.6 188.6,152.6 190.5,147.7C190.8,147 191.2,145.5 191.2,145.2L191.3,145.2C191.3,145.5 191.7,146.9 192,147.7C193.6,151.8 203.9,177.6 203.9,177.6L204.8,177.6L222.7,125.9C222.8,125.9 213.5,125.9 213.5,125.9ZM64.1,124.3L40.5,176L50.1,176L53.9,167.3L75.2,167.3L79,176L88.5,176L65,124.3L64.1,124.3ZM72.1,160L56.9,160C56.9,160 61,150 63.7,143.8C64.2,142.7 64.5,141.4 64.5,141.4L64.6,141.4C64.6,141.4 64.9,142.7 65.3,143.8C68,150.3 72.1,160 72.1,160Z" style="fill:rgb(35,31,32);fill-rule:nonzero;"/>
        <path id="red" d="M381.9,150.2C381.9,153.2 381.8,155.1 381.8,156.2C381,173.1 370.1,184 349.6,185C347.4,185.1 346.1,185.2 343.4,185.2C342.1,185.2 341.2,185.1 340.3,185.1C345.5,184.7 350,183.2 353.7,180.9C353.9,180.8 354.1,180.6 354.3,180.5C354.6,180.3 354.8,180.1 355.1,179.9C355.5,179.6 355.9,179.3 356.3,178.9C356.4,178.8 356.5,178.8 356.5,178.7C357,178.3 357.5,177.8 357.9,177.4L357.9,177.3C358.4,176.8 358.8,176.3 359.2,175.8L359.3,175.7C359.7,175.2 360,174.7 360.4,174.2C360.5,174.1 360.5,174 360.6,173.9C360.9,173.5 361.1,173 361.3,172.6C361.4,172.4 361.5,172.1 361.6,171.9C361.8,171.6 361.9,171.2 362,170.9C362.1,170.5 362.3,170.1 362.4,169.7C362.5,169.5 362.5,169.3 362.6,169C362.8,168.5 362.9,167.9 363,167.4C363,167.3 363,167.2 363.1,167.1C363.2,166.5 363.3,165.8 363.4,165.1L363.4,165C363.5,164.3 363.5,163.5 363.5,162.8C363.5,162.2 363.5,161.6 363.4,161C362.9,153.1 358.8,148.3 354.5,144.3C349,139.2 343,135.4 343,127.9C343,118.7 349.4,116.3 352.7,115.6C371.2,117.5 381,128.2 381.6,144.2C381.9,145.3 382,147.1 381.9,150.2ZM344.1,179.3C345.1,177.6 345.7,175.4 345.7,172.5C345.7,158.6 325.1,157.4 325.1,137.6C325.1,130.9 327.5,125.9 331.2,122.2C335.2,118.2 340.8,115.9 346.4,115.2C345.5,115.2 344.6,115.1 343.4,115.1C340.7,115.1 339.4,115.2 337.2,115.3C316.7,116.3 305.8,127.2 305.1,144.1C305.1,145.2 304.9,147.1 304.9,150.1C304.9,153.1 305,154.9 305.1,156.1C305.8,172.5 316.2,183.4 335.6,184.8C335.7,184.8 335.8,184.8 335.9,184.7L335.7,184.7C338,184.3 341.8,183 344.1,179.3Z" style="fill:rgb(214,35,42);fill-rule:nonzero;"/>
        <path id="tm" d="M383.3,181.2L382,181.2L382,180.7L385.5,180.7L385.5,181.2L384,181.2L384,185.2L383.3,185.2L383.3,181.2ZM386,180.7L387.1,180.7L388.4,184.1L389.7,180.7L390.8,180.7L390.8,185.1L390.1,185.1L390.1,181.2L388.7,185.1L388,185.1L386.6,181.2L386.6,185.1L385.9,185.1L386,180.7Z" style="fill:rgb(35,31,32);fill-rule:nonzero;"/>
    </g>
</svg>
